src/pos-icons/shopping-search.svg

<svg height="24" viewBox="0 0 24 24" width="24" xmlns="http://www.w3.org/2000/svg"><path d="m19 6h-2a5 5 0 0 0 -10 0h-2a2 2 0 0 0 -2 2v12a2 2 0 0 0 2 2h7.05a6.5 6.5 0 0 1 -3.05-5.5 6.4 6.4 0 0 1 1.25-3.82 5 5 0 0 1 -3.25-4.68h2a3 3 0 0 0 3 3h.06a6.22 6.22 0 0 1 2-.84 3 3 0 0 0 .94-2.16h2a4.88 4.88 0 0 1 -.46 2.09 6.5 6.5 0 0 1 4.46 3v-5.09a2 2 0 0 0 -2-2m-10 0a3 3 0 0 1 6 0m4.31 12.9a4.5 4.5 0 1 0 -1.43 1.42l3.12 3.07 1.39-1.39m-6.89-3a2.5 2.5 0 1 1 2.5-2.5 2.5 2.5 0 0 1 -2.5 2.5z"/></svg>

<?xml version="1.0" encoding="UTF-8"?><!DOCTYPE svg PUBLIC "-//W3C//DTD SVG 1.1//EN" "http://www.w3.org/Graphics/SVG/1.1/DTD/svg11.dtd"><svg xmlns="http://www.w3.org/2000/svg" xmlns:xlink="http://www.w3.org/1999/xlink" version="1.1" id="mdi-shopping-search" width="24" height="24" viewBox="0 0 24 24"><path d="M19 6H17A5 5 0 0 0 7 6H5A2 2 0 0 0 3 8V20A2 2 0 0 0 5 22H12.05A6.5 6.5 0 0 1 9 16.5A6.4 6.4 0 0 1 10.25 12.68A5 5 0 0 1 7 8H9A3 3 0 0 0 12 11H12.06A6.22 6.22 0 0 1 14.06 10.16A3 3 0 0 0 15 8H17A4.88 4.88 0 0 1 16.54 10.09A6.5 6.5 0 0 1 21 13.09V8A2 2 0 0 0 19 6M9 6A3 3 0 0 1 15 6M19.31 18.9A4.5 4.5 0 1 0 17.88 20.32L21 23.39L22.39 22M15.5 19A2.5 2.5 0 1 1 18 16.5A2.5 2.5 0 0 1 15.5 19Z" /></svg>
